!!!!SEGMENT: pl-wtm--r-91-n--001_noskowski-zygmunt--bajki-stary-pies-i-stary-sluga.krn
!!!cenid: 18xx:2130
!!!COM: Noskowski, Zygmunt
!!!COM-rism: pe106604
!!!CDT: 1846/05/02-1909/07/23
!!!CNT: Polish
!!!OTL: Bajki – Stary pies i stary sługa
!!!PDT: 1875
!!!AGN: Secular
!!!SMS-siglum: PL-Wtm
!!!SMS-shelfmark: R 91/N
!!!NIFC-rismID: 1001084142
!!!URL-scan: http://repozytorium.nifc.pl/skany/pl-wtm-nut--r91n
!!!ONB-nifc:
!!!SMS-variant:
!!!SMS-altvar:
**kern	**kern	**dynam	**kern	**text	**dynam
*part2	*part2	*part2	*part1	*part1	*part1
*staff3	*staff2	*	*staff1	*staff1	*
*I"Fortepian	*I"Fortepian	*	*I"Spiew	*	*
*clefF4	*clefG2	*	*clefG2	*	*
*k[]	*k[]	*	*k[]	*	*
*M9/8	*M9/8	*	*M9/8	*	*
=1	=1	=1	=1	=1	=1
*all\right	*all\right	*	*all\right	*	*
*2\right	*2\right	*	*2\right	*	*
!	!LO:TX:a:i:t=Andantino con moto	!	!LO:TX:a:i:t=Andantino con moto	!	!
!	!	!LO:DY:b=2:rj	!	!	!
[<2.E [<2.AA\	4r	p	8%9r	.	.
.	8r	.	.	.	.
.	[>4.d#X [>4.c [>4.F#X<^>/	.	.	.	.
4E] 4AA\]	4d#] 4c] 4F#</]	.	.	.	.
8r	8r	.	.	.	.
=2	=2	=2	=2	=2	=2
[<2.E [<2.AA\	4r	.	8%9r	.	.
.	8r	.	.	.	.
.	[>4.d#X [<4.c [>4.F#X</	.	.	.	.
4E] 4AA\]	4d#] 4c] 4F#</]	.	.	.	.
8r	8r	.	.	.	.
=3	=3	=3	=3	=3	=3
[>2.E [<2.AA\	4r	.	8%9r	.	.
.	8r	.	.	.	.
.	(>4e 4c/	.	.	.	.
.	8d 8B/	.	.	.	.
4.E_> 4.AA\_<	8eL 8c/	<	.	.	.
.	8f 8d/	.	.	.	.
.	8gJ 8e/)	[	.	.	.
=4	=4	=4	=4	=4	=4
*	*^	*	*	*	*
*	*	*^	*	*	*	*
8E] 8AA\]	(>8fL 8d/	8rcyy	8ryy	>	8%9r	.	.
8r	8e 8c/	8rcyy	8ryy	.	.	.	.
8r	8cJ 8A/)	8rcyy	8ryy	]	.	.	.
[>4.E [<4.EE\	[>4.e/	8c\L	[>4.G#X</	.	.	.	.
.	.	8B\	.	.	.	.	.
.	.	8c\J	.	.	.	.	.
4E] 4EE\;<]	4e;>/]	4d\	4G#<;>/]	.	.	.	.
8r	8raa	8rcyy	8ryy	.	.	.	.
*	*v	*v	*v	*	*	*	*
=5	=5	=5	=5	=5	=5
[<2.E [<2.AA\	4r	p	4r	.	.
.	8r	.	8r	.	.
!	!	!	!LO:TX:a:i:t=dolce	!	!LO:DY:b:rj
.	2d#X 2c 2F#X<^>/	.	4a/	Pó-	p
.	.	.	8b/	-ki	.
4.E] 4.AA\]	.	.	8cc\	go-	.
.	4ryy	.	8b\	-nił	.
.	.	.	8cc\	za-	.
!!LO:LB:g=original
=6	=6	=6	=6	=6	=6
[>2.EE [<2.AAA/	4r	.	(>[>4.ee\	-ją-	.
.	8r	.	.	.	.
.	2.e 2.c 2.E<^>/	.	4ee\]	.	.
.	.	.	8dd\)	.	.
4.EE] 4.AAA/]	.	.	4cc\	-ce,	.
.	.	.	8r	.	.
=7	=7	=7	=7	=7	=7
[<2.E [<2.AA\	4r	.	4r	.	.
.	8r	.	8r	.	.
.	2d#X 2c 2F#X<^>/	.	4a/	pó-	.
.	.	.	8b/	-ki	.
4.E] 4.AA\]	.	.	(>8cc\L	kacz-	.
.	4r	.	8b\J)	.	.
.	.	.	8a/	-ki	.
=8	=8	=8	=8	=8	=8
*	*^	*	*	*	*
2.E 2.EE\	4r	4ryy	.	(<4g#X/	zno-	.
.	8r	8ryy	.	8a/)	.	.
.	[<4.e	4.B< 4.G#X</	.	4b/	-sił.	.
.	.	.	.	8r	.	.
8D 8DD\	8e]L	8B< 8G#<^>/	.	4r	.	.
.	(<8qg/	.	.	.	.	.
8r	(<8f/)	8ryy	.	.	.	.
8r	8e/J)	8ryy	.	8r	.	.
*	*v	*v	*	*	*	*
=9	=9	=9	=9	=9	=9
*	*^	*	*	*	*
!LO:N:vis=2	!	!	!	!	!	!
2.C 2.CC\	(>4A</	2.E</	.	4.ee\	Kasz-	.
!	!LO:TX:a:i:t=cres-cen-do:problem:dynamics with line extensions	!	!LO:HP:a:i:t=cres-cen-do:ext=cd	!	!	!
.	8B</	.	<	.	.	.
.	8c</L	.	.	[<4.a/	-tan,	.
.	8d#X/)	.	.	.	.	.
.	8e/J	.	.	.	.	.
4.D 4.DD\	(<8f/L	4.A< 4.F</	.	8a/]	.	.
.	8e/	.	.	8r	.	.
.	8dn/J)	.	[[	8b\	co	.
*	*v	*v	*	*	*	*
=10	=10	=10	=10	=10	=10
2.F 2.FF\	(>4B< 4A</	.	[>4.dd\	chciał,	.
.	8a/)	.	.	.	.
.	4.a/	.	8dd\]	.	.
.	.	.	8r	.	.
.	.	.	8dd\	w	.
4.D 4.DD/	4.a 4.f 4.B/	.	8dd\	pa-	.
.	.	.	8cc\	-na	.
.	.	.	8b\	swo-	.
!!LO:LB:g=original
=11	=11	=11	=11	=11	=11
*	*^	*	*	*	*
!	!	!	!LO:DY:rj	!	!	!LO:DY:b:rj
[>2.E [>2.EE/	4.a 4.e/	4.B\	p	(<4.e/	-je-	p
.	2.a 2.e/	8c\L	.	4.a/)	.	.
.	.	(>8d\	.	.	.	.
.	.	[>8c\J	.	.	.	.
4.E] 4.EE/]	.	8c\L]	.	4b\	-go	.
.	.	8B\	.	.	.	.
.	.	8A\J)	.	8cc\	wy-	.
*	*v	*v	*	*	*	*
=12	=12	=12	=12	=12	=12
[<2.EE/	(>4.g#X 4.e 4.G#X/	.	(<4.b/	-pro-	.
.	4.f#X 4.e 4.c/	.	8a/L	.	.
.	.	.	8f#X/	.	.
.	.	.	8a/J)	.	.
4.EE/]	4.g# 4.e 4.B/)	.	4g#X/	-sił.	.
.	.	.	8r	.	.
=13	=13	=13	=13	=13	=13
*^	*	*	*	*	*
4.G#X/	[<2.E\	(>4.b 4.d/	p	8%9r	.	.
4.A/	.	8aL 8c/	.	.	.	.
.	.	8f#X 8e/	.	.	.	.
.	.	8aJ 8c/	>	.	.	.
4.B/	4.E\]	4.g#X 4.d/)	]]	.	.	.
=14	=14	=14	=14	=14	=14	=14
*	*	*^	*	*	*	*
2A/	(>4.Fn\	(>4.b/	2.d#X\	.	4r	.	.
.	.	.	.	.	8r	.	.
.	4.BB\	8a/L	.	.	4r	.	.
4rcyy	.	8fn/	.	.	.	.	.
.	.	8a/J	.	.	8r	.	.
8rcyy	4E\	4.g#X 4.e 4.B/)	8rcyy	>	8r	.	.
4rcyy	.	.	8rcyy	.	8r	.	.
.	8Dn\)	.	[8rcyy	]	8ee\	Ze-	.
*v	*v	*	*	*	*	*	*
=15	=15	=15	=15	=15	=15	=15
!	!	!	!	!LO:TX:a:t=P:problem:"p" dopisane ołówkiem	!	!
!	!	!	!	!	!	!LO:DY:b:rj
!	!	!	!	!LO:TX:a:t=P:problem:łuk dopisany ołówkiem	!	!
!	!	!	!	!LO:TX:a:i:t=sost	!	!
!	!	!	!	!LO:TX:a:t=P:problem:"sost" dopisane ołówkiem	!	!
2.C^> 2.CC/	2.gn 2.e 2.B-X^>/	8ryy	pp	(>4ee\	-sta-	p
.	.	8rcyy	.	.	.	.
.	.	8rcyy	.	8g/)	-rzał	.
.	.	8rcyy	.	4g/	się;	.
.	.	8rcyy	.	.	.	.
.	.	8rcyy	.	8r	.	.
4.C#X 4.CC#X/	(>8a/L	4e 4A\	.	8r	.	.
.	8g/	.	.	8r	.	.
.	8e/J	8rA	.	8a/	ze-	.
=16	=16	=16	=16	=16	=16	=16
[>4.D [<4.DD/	8f/L)	[<4.A\	.	4f/	-sta-	.
.	(>8d/	.	.	.	.	.
.	8e/J	.	.	8g/	-rzał	.
8D]L 8DD/]	8f/L)	8A\]	.	4a/	się;	.
(>8E/	8e/	8rA	.	.	.	.
8F/J	(<8f/J	8rA	.	8r	.	.
8A\L	8a/L	8rcyy	.	4a/	aż	.
8F\	8f/	8rcyy	.	.	.	.
8D\J)	8d/J)	8rcyy	.	8dd\	z o-	.
*	*v	*v	*	*	*	*
!!LO:LB:g=original
=17	=17	=17	=17	=17	=17
!	!LO:TX:a:t=P:problem:łuk dopisany ołówkiem	!	!	!	!
!LO:TX:b:t=P:problem:łuk dopisany ołówkiem	!LO:TX:b:t=P:problem:łuk dopisany ołówkiem	!	!	!	!
4.C (<4.CC/	(>(<8a/L	.	4.dd\	-we-	.
.	8f/	.	.	.	.
.	8d/J	<	.	.	.
4BB/	8gL 8f/	.	4dd\	-go	.
!	!	!	!	!	!LO:HP:a
.	8d/	.	.	.	<
8AA/	8aJ 8f/	.	8cc\	pańs-	.
4GG/	8bL 8g/	.	8b/	-kie-	.
.	8d/	[	8a/	-go	.
8FF/)	8bJ) 8g/)	.	8g/	pieś-	[
=18	=18	=18	=18	=18	=18
4EE/	(>4cc 4g 4c/	.	(<4g/	-ci-	.
!LO:TX:a:t=P:problem:łuk dopisany ołówkiem	!	!	!	!	!
(>8F\	8dd 8a/	.	8a/)	.	.
(>8E\L)	8ccL 8g/)	.	4g/	-dła	.
!LO:TX:a:t=P:problem:łuk dopisany ołówkiem	!	!	!	!	!
(>8G\	(<8g/	.	.	.	.
8F\J)	8f/J	.	8r	.	.
8E\L	8e/L	.	4r	.	.
8D\	8d/	.	.	.	.
8C\J)	8c/J)	.	8r	.	.
=19	=19	=19	=19	=19	=19
!	!	!	!LO:TX:a:i:t=molto espressivo	!	!
8FL 8AA-X\	8fL 8c/	mf	[>4.cc\	Psis-	.
(>8E\	(<8e/	.	.	.	.
8F\J	8f/J	.	.	.	.
8c\)	8cc/L)	.	4cc\]	.	.
8r	(<8a-X/	.	.	.	.
8r	8g/J)	<	8cc\	-ko	.
!LO:TX:b:t=P:problem:łuk dopisany ołówkiem	!	!	!	!	!
(<4FF/	[>4.f [>4.c [<4.A-X/	[[	8b-X/	sta-	.
.	.	.	8a-X/	-re,	.
8EE-X/	.	.	8g/	nie-	.
=20	=20	=20	=20	=20	=20
8DD/L)	8f]L 8c] 8A-/]	.	(<[<4.f/	-zdat-	.
8BB/	(<8Bn/	<	.	.	.
!LO:TX:b:t=P:problem:łuk dopisany ołówkiem	!	!	!	!	!
(<8C/J	8c/J	.	.	.	.
8A-X\L)	8a-X/L)	[	4f/]	.	.
8F\	8f/	.	.	.	.
(>8E\J	(<8e/J	.	8g/)	.	.
8F\L)	8f/L)	.	8a-X/	-ne,	.
(>8C\	(<8c/	.	8r	.	.
8D\J)	8d/J)	.	8d/	od-	.
!!LO:LB:g=original
=21	=21	=21	=21	=21	=21
4.AA-X\ 4.AAA-X\	4.d 4.c 4.F<^>/	.	4.d/	-da-	.
8GGL 8GGG\	4.e-X 4.c 4.G</	.	[<4.e-X/	-no	.
(>8FF#X\	.	.	.	.	.
8GG\J	.	.	.	.	.
8BBn/L	4.g 4.c/	.	4e-/]	.	.
8C/)	.	.	.	.	.
8D/J	.	.	8f/	do	.
=22	=22	=22	=22	=22	=22
*^	*	*	*	*	*
!	!	!	!	!	!	!LO:DY:a
(<(<8D/L	[<2.GG\	(>4.g 4.Bn/	>	(<4.g/	by-	>
8E-X/)	.	.	.	.	.	.
8D/J)	.	.	.	.	.	.
4.C#X/	.	4.a-X 4.B-X/	.	8a-X/L	.	.
.	.	.	.	8b-X/	.	.
.	.	.	.	8a-/J)	.	.
(>(<8D/L	4.GG\_<	4g 4Bn/)	.	4g/	-dła.	.
8E-X/	.	.	.	.	.	.
8D/J)	.	8r	.	8r	.	.
=23	=23	=23	=23	=23	=23	=23
(<8G/L	4.GG\]	4r	.	8%9r	.	.
8E-X/	.	.	.	.	.	.
8D/J))	.	8r	.	.	.	.
!	!	!	!LO:DY:rj	!	!	!
2.rcyy	[>2.D [<2.GG\	(>4b 4g/	p	.	.	.
.	.	8a 8f#X/	<	.	.	.
.	.	8bL 8g/	.	.	.	.
.	.	8cc 8a/)	.	.	.	.
.	.	8ddJ 8b/	[	.	.	.
=24	=24	=24	=24	=24	=24	=24
4.rcyy	4.D] 4.GG\]	(>8ee-XL 8cc/	>	8%9r	.	.
.	.	8cc 8a/	.	.	.	.
.	.	8aJ 8f#X/)	.	.	.	.
(<8G/L	[<4.GG\	[>4.b [<4.g/	]	.	.	.
8E-X/	.	.	.	.	.	.
8D/J)	.	.	.	.	.	.
4D/	4GG\]	4b] 4g/]	.	.	.	.
8D#X/	8FF#X\	8r	.	.	.	.
=25	=25	=25	=25	=25	=25	=25
!	!	!	!LO:DY:rj	!	!	!
(<8En/L	4.EE\	4r	pp	8%9r	.	.
8C/	.	.	.	.	.	.
8BB/J)	.	8r	.	.	.	.
[>2.BB [<2.EE^>/	8rEEyy	(>4g 4en/	pp	.	.	.
.	8rEEyy	.	.	.	.	.
.	8rEEyy	8f#X 8d#X/	.	.	.	.
.	8rEEyy	8gL 8e/	.	.	.	.
.	8rEEyy	8a 8f#/	.	.	.	.
.	8rEEyy	8bJ 8g/)	.	.	.	.
!!LO:PB:g=original
=26	=26	=26	=26	=26	=26	=26
[>4.BB^>/]	[<2.EE\]	(>8ccL 8a/	>	8%9r	.	.
.	.	8a 8f#X/	.	.	.	.
.	.	8f#J 8d#X/)	]	.	.	.
8BB/L]	.	[>4.g#X [>4.e [<4.B/	.	.	.	.
(>8C/	.	.	.	.	.	.
8BB/J	.	.	.	.	.	.
8E/L	4.EE\]	4g#] 4e] 4B/]	.	.	.	.
8C/	.	.	.	.	.	.
8BB/J)	.	8r	.	.	.	.
=27	=27	=27	=27	=27	=27	=27
[<4.BB^>/	[<2.EE\	4r	.	8%9r	.	.
.	.	8r	.	.	.	.
4BB/]	.	2.d#X 2.c 2.F#X<^>/	.	.	.	.
8BB/	.	.	.	.	.	.
8C/L	4.EE\_<	.	.	.	.	.
8BB/	.	.	.	.	.	.
8AA/J	.	.	.	.	.	.
=28	=28	=28	=28	=28	=28	=28
*	*	*^	*	*	*	*
*	*	*	*^	*	*	*	*
8E/L	4.EE\]	4r	4ryy	4ryy	.	8%9r	.	.
8C/	.	.	.	.	.	.	.	.
8BB/J	.	8r	8rcyy	8ryy	.	.	.	.
2.E 2.EE\	2.rEEyy	2.e/	8c\L	2.G#X</	.	.	.	.
.	.	.	8B\	.	.	.	.	.
!	!	!	!	!	!LO:HP:a	!	!	!
.	.	.	8c\J	.	>	.	.	.
.	.	.	8d\L	.	.	.	.	.
.	.	.	8c\	.	.	.	.	.
.	.	.	8B\J	.	]]	.	.	.
*v	*v	*	*	*	*	*	*	*
*	*v	*v	*v	*	*	*	*
=29	=29	=29	=29	=29	=29
[<2.E [<2.AA\	4r	pp	4r	.	.
.	8r	.	8r	.	.
!	!	!	!	!	!LO:DY:b:rj
.	2.d#X 2.c 2.F#X<^>/	.	8a/	Wi-	p
.	.	.	8a/	-dząc,	.
.	.	.	8b/	że	.
4.E] 4.AA\]	.	.	(>8cc\L	pies	.
.	.	.	8b\J)	.	.
.	.	.	8cc\	nie-	.
=30	=30	=30	=30	=30	=30
[>2.EE [<2.AAA/	4r	.	(>[>4.ee\	-bo-	.
.	8r	.	.	.	.
.	2.e 2.c 2.E<^>/	.	4ee\]	.	.
.	.	.	8dd\)	.	.
4.EE] 4.AAA/]	.	.	4cc\	-rak	.
.	.	.	8r	.	.
!!LO:LB:g=original
=31	=31	=31	=31	=31	=31
[<2.E [<2.AA\	4r	.	4r	.	.
.	8r	.	8r	.	.
.	2.d#X 2.c 2.F#X<^>/	.	4a/	ob-	.
.	.	.	8b/	-li-	.
4.E] 4.AA\]	.	.	(>8cc\L	-zu-	.
.	.	.	8b\J)	.	.
.	.	.	8a/	-je	.
=32	=32	=32	=32	=32	=32
*	*^	*	*	*	*
2.E 2.EE\	4r	4ryy	.	(<4g#X/	koś-	.
.	8r	8ryy	.	8a/)	.	.
.	[<4.e	4.B< 4.G#X</	.	4b/	-ci,	.
.	.	.	.	8r	.	.
4.D 4.DD\	8e]L	8B< 8G#<^>/	.	4r	.	.
.	(<8qg/	.	.	.	.	.
.	(<8f/)	8rA<	.	.	.	.
.	8e/J)	8rA<	.	8r	.	.
*	*v	*v	*	*	*	*
=33	=33	=33	=33	=33	=33
*	*^	*	*	*	*
2.C 2.CC\	(>4A</	2.E</	.	4.ee\	Ży-	.
.	8B</	.	.	.	.	.
.	8c</L	.	.	4.a/	-wił	.
.	8d#X/)	.	.	.	.	.
.	8e/J	.	.	.	.	.
4.D 4.DD\	(<8f/L	4.A</ 4.F</	.	4.b/	go	.
.	8e/	.	.	.	.	.
.	8dn/J)	.	.	.	.	.
*	*v	*v	*	*	*	*
=34	=34	=34	=34	=34	=34
2.F 2.FF\	(>/4B< 4A</	.	4dd\	sta-	.
.	8a/)	.	8dd\	-ry	.
.	(<8a/L	.	(>4dd\	sza-	.
!	!LO:TX:b:i:t=cres-cen-do:problem:dynamics with line extensions	!LO:HP:b:i:t=cres-cen-do:ext=cd	!	!	!
.	8g#X/	<	.	.	.
.	8a/J)	.	8cc\)	.	.
!	!	!	!LO:TX:a:i:t=cres-cen-do:problem:dynamics with line extensions	!	!LO:HP:a:i:t=cres-cen-do:ext=cd
4.D 4.DD/	(<8a/L	.	4b\	-farz,	<
.	8f/	.	.	.	.
.	8B/J)	.	8r	.	.
=35	=35	=35	=35	=35	=35
4.D 4.DD/	(>8g#X/L	.	4.b\	ży-	.
.	8e/	.	.	.	.
.	8B/J	.	.	.	.
4.C 4.CC/	8a/L	.	4.cc\	-wił	.
.	8e/	.	.	.	.
.	8A/J	[	.	.	.
4.BB 4.BBB/	8b/L	.	4.dd\	go	[
.	8g#X/	.	.	.	.
.	8d/J)	.	.	.	.
!!LO:LB:g=original
=36	=36	=36	=36	=36	=36
!	!	!LO:DY:rj	!	!	!
8GG#XL 8GGG#X/	[>4.b [>4.f [<4.d/	f	[>4.ff\	sta-	.
(<8D/	.	.	.	.	.
8F/J	.	.	.	.	.
8G#X\L	8b]L 8f] 8d/]	.	4ff\]	.	.
8B\	(>8g#X/	.	.	.	.
8c\J	8a/J	.	8ee\	-ry	.
8d>\L	8b/L	.	(>8dd\L	sza-	.
8e>\	8cc/	.	8cc\J)	.	.
8f>\J)	8dd/J)	.	8b\	-farz,	.
=37	=37	=37	=37	=37	=37
!	!	!LO:DY:rj	!	!	!
[>2.C [<2.EE/	[>2.e [<2.A/	p	4r	.	.
.	.	.	8r	.	.
!	!	!	!	!	!LO:DY:b:rj
.	.	.	4a/	nie-	p
.	.	.	8b/	-gdyś	.
4.C_> 4.EE/_	4.e_> 4.A/_<	.	(>8cc\L	pod-	.
.	.	.	8b\J)	.	.
.	.	.	8cc\	-sta-	.
=38	=38	=38	=38	=38	=38
*	*	*	*2\right	*	*
8C]L 8EE/]	8e]L 8A/]	.	[>2.ee\	-roś-	.
(>(<8C/	(>(<8A/	.	.	.	.
8D/J)	8B/J)	.	.	.	.
8F\L	8d/L	.	.	.	.
8E\	8c/	.	.	.	.
8D\J	8G#X/J	.	.	.	.
!	!	!	!	!	!LO:HP:b
8C/L	8A/L	>	4.ee\_>	.	>
8BB/)	8B/	.	.	.	.
8AA/J	8c/J)	]]	.	.	.
=39	=39	=39	=39	=39	=39
*	*^	*	*	*	*
!	!LO:TX:t=P:problem:mixed beam	!	!	!	!	!
[<2.EE/	[>2.e [>2.d/	8c\L	.	(>2.ee\_>	.	.
.	.	8B\	.	.	.	.
.	.	8A</J	.	.	.	.
.	.	8G#X</L	.	.	.	.
.	.	8B</	.	.	.	.
.	.	8F</J	.	.	.	.
4.EE/]	4.e] 4.d/]	4.E</	.	8ee\L]	.	]
.	.	.	.	8cc\	.	.
.	.	.	.	8b\J)	.	.
*	*v	*v	*	*	*	*
=40	=40	=40	=40	=40	=40
!	!	!LO:DY:rj	!	!	!
*ped	*	*	*	*	*
4.EE 4.AAA/	4.e 4.c 4.E</	pp	[<4.a/	-ci.	.
2.d#X 2.c 2.F#X\	2.dd#X 2.cc 2.f#X^>/	.	4a/]	.	.
.	.	.	8r	.	.
.	.	.	4r	.	.
*Xped	*	*	*	*	*
.	.	.	8r	.	.
!!LO:LB:g=original
=41	=41	=41	=41	=41	=41
!	!	!LO:DY:rj	!	!	!
*ped	*	*	*	*	*
4.EE 4.AAA\	4.E< 4.AA</	p	8%9r	.	.
2.d#X 2.c 2.F#X^>\	2.dd#X 2.cc 2.f#X^>/	.	.	.	.
*Xped	*	*	*	*	*
=42	=42	=42	=42	=42	=42
4.EE 4.AAA\	4.E< 4.AA</	pp	8%9r	.	.
(<4e> 4c>\	(>4ee 4cc/	.	.	.	.
!LO:TX:a:i:t=ritenuto	!	!	!	!	!
8d> 8B>\	8dd 8b/	.	.	.	.
8e>L 8c>\	8eeL 8cc/	.	.	.	.
8fn> 8dn>\	8ffn 8ddn/	.	.	.	.
8g>J 8e>\)	8ggJ 8ee/)	.	.	.	.
=43	=43	=43	=43	=43	=43
*ped	*	*	*	*	*
4.e> 4.c>\	4.ee 4.cc/	.	8%9r;>	.	.
2.EE 2.AAA;<\	2.E< 2.AA<;>/	.	.	.	.
!	!LO:TX:a:t=P:problem:w źródle ta adnotacja zapisana za ostatnim taktem	!	!	!	!
!	!LO:TX:b:i:t=2/1 1875.-	!	!	!	!
==	==	==	==	==	==
*-	*-	*-	*-	*-	*-
!!!system-decoration: s1{(s2,s3)}
!!!RDF**dynam: > = "diminuendo", 'fontstyle="italics"
!!!RDF**kern: > = above
!!!RDF**kern: < = below
!!!EED: Antoni Szymański
!!!EST: 2021-06-05
!!!ENC: Mateusz Solarz
!!!END: 2021-05-12
